assets/logos/icons/flag.svg

<svg height="24" viewBox="0 0 24 24" width="24" xmlns="http://www.w3.org/2000/svg"><path d="m16.2000001 8.69999998 4.7999999-4.70000003h-14v-2h-2v2 8.99999995 9h2v-9h14zm-.4 2.30000002h-8.80000009v-5.00000003h9.10000009l-2.8000001 2.70000001z" fill="#492f5c" fill-rule="evenodd"/></svg>

<svg xmlns="http://www.w3.org/2000/svg" xmlns:xlink="http://www.w3.org/1999/xlink" width="24" height="24" viewBox="0 0 24 24">
  <defs>
    <path id="flag-a" d="M16.2000001,8.69999998 L21,3.99999995 L7,3.99999995 L7,1.99999995 L5,1.99999995 L5,3.99999995 L5,3.99999995 L5,12.9999999 L5,12.9999999 L5,21.9999999 L7,21.9999999 L7,12.9999999 L21,12.9999999 L16.2000001,8.69999998 Z M15.8000001,11 L7.00000001,11 L7.00000001,5.99999997 L16.1000001,5.99999997 L13.3,8.69999998 L15.8000001,11 Z"/>
  </defs>
  <use fill="#492F5C" fill-rule="evenodd" xlink:href="#flag-a"/>
</svg>
